packages/dnb-ui-lib/assets/icons/transfer_to.svg

<svg width="16" height="16" viewBox="0 0 16 16" fill="none" xmlns="http://www.w3.org/2000/svg">
<path fill-rule="evenodd" clip-rule="evenodd" d="M12.0661 3.01676L11.6761 1.78686L8.94564 3.01676H12.0661ZM11.1583 0.374916L5.29334 3.01676H3.54536C2.46807 3.01676 1.52264 3.85282 1.52264 4.97067V5.27164C1.52264 5.68586 1.85842 6.02164 2.27264 6.02164C2.68685 6.02164 3.02264 5.68586 3.02264 5.27164V4.97067C3.02264 4.75872 3.21684 4.51676 3.54536 4.51676H5.45446H13.0908H13.7272C14.0557 4.51676 14.2499 4.75872 14.2499 4.97067V13.7961C14.2499 14.008 14.0557 14.25 13.7272 14.25H3.54536C3.21684 14.25 3.02264 14.008 3.02264 13.7961V13.4951C3.02264 13.0809 2.68685 12.7451 2.27264 12.7451C1.85842 12.7451 1.52264 13.0809 1.52264 13.4951V13.7961C1.52264 14.9139 2.46807 15.75 3.54536 15.75H13.7272C14.8045 15.75 15.7499 14.9139 15.7499 13.7961V4.97067C15.7499 3.85283 14.8045 3.01676 13.7272 3.01676H13.6398L13.0644 1.20252C12.8063 0.388818 11.8878 0.0463508 11.1583 0.374916ZM3.73279 7.28383C3.53974 7.09079 3.22676 7.09079 3.03372 7.28384C2.84068 7.47688 2.84068 7.78986 3.03372 7.98291L4.12319 9.07237H0.499932C0.226928 9.07237 0.00561523 9.29368 0.00561523 9.56668C0.00561523 9.83969 0.226928 10.061 0.499932 10.061H4.12319L3.03372 11.1505C2.84068 11.3435 2.84068 11.6565 3.03372 11.8495C3.22676 12.0426 3.53974 12.0426 3.73279 11.8495L5.66612 9.91622C5.75882 9.82352 5.8109 9.69779 5.8109 9.56668C5.8109 9.43558 5.75882 9.30985 5.66612 9.21715L3.73279 7.28383Z" fill="black"/>
</svg>

<svg width="16" height="16" viewBox="0 0 16 16" fill="none" xmlns="http://www.w3.org/2000/svg"><path fill-rule="evenodd" clip-rule="evenodd" d="M12.066 3.017l-.39-1.23-2.73 1.23h3.12zM11.158.375L5.293 3.017H3.545c-1.077 0-2.022.836-2.022 1.954v.3a.75.75 0 101.5 0v-.3c0-.212.194-.454.522-.454H13.727c.329 0 .523.242.523.454v8.825c0 .212-.194.454-.523.454H3.545c-.328 0-.522-.242-.522-.454v-.3a.75.75 0 00-1.5 0v.3c0 1.118.945 1.954 2.022 1.954h10.182c1.078 0 2.023-.836 2.023-1.954V4.971c0-1.118-.945-1.954-2.023-1.954h-.087l-.576-1.814C12.806.389 11.888.046 11.158.375zM3.733 7.284a.494.494 0 10-.7.699l1.09 1.09H.5a.494.494 0 100 .988h3.623l-1.09 1.09a.494.494 0 10.7.699l1.933-1.934a.494.494 0 000-.699L3.733 7.284z" fill="#000"/></svg>
